app/assets/images/icons/active/event--pin--simple.svg

<?xml version="1.0" encoding="UTF-8" standalone="no"?>
<svg width="24px" height="32px" viewBox="0 0 24 32" version="1.1" xmlns="http://www.w3.org/2000/svg" xmlns:xlink="http://www.w3.org/1999/xlink" xmlns:sketch="http://www.bohemiancoding.com/sketch/ns">
    <title>event--pin--simple</title>
    <description>Created with Sketch (http://www.bohemiancoding.com/sketch)</description>
    <defs></defs>
    <g id="Points-of-interest" stroke="none" stroke-width="1" fill="none" fill-rule="evenodd" sketch:type="MSPage">
        <path d="M11.9989697,-5.32907052e-15 C18.6279729,-5.32907052e-15 24,4.654 24,11.648 C24,18.482 17.9459088,21.417 14.7200137,25.788 C12.083455,29.357 11.9989697,32 11.9989697,32 C11.9989697,32 11.9793938,29.344 9.27895595,25.788 C5.96033313,21.417 0,18.684 0,11.648 C0,4.652 5.37305744,-5.32907052e-15 11.9989697,-5.32907052e-15 M11.999,7.681 C9.7,7.681 7.839,9.542 7.839,11.841 C7.839,14.136 9.7,16 11.999,16 C14.293,16 16.161,14.136 16.161,11.841 C16.161,9.542 14.293,7.681 11.999,7.681 L11.999,7.681 Z M11.999,7.681" id="point-pin--event" fill="#684E79" sketch:type="MSShapeGroup"></path>
    </g>
</svg>

<svg width="24" height="32" viewBox="0 0 24 32" xmlns="http://www.w3.org/2000/svg" xmlns:sketch="http://www.bohemiancoding.com/sketch/ns"><title>event--pin--simple</title><path d="M11.999 0c6.629 0 12.001 4.654 12.001 11.648 0 6.834-6.054 9.769-9.28 14.14-2.637 3.569-2.721 6.212-2.721 6.212s-.02-2.656-2.72-6.212c-3.319-4.371-9.279-7.104-9.279-14.14 0-6.996 5.373-11.648 11.999-11.648m0 7.681c-2.299 0-4.16 1.861-4.16 4.16 0 2.295 1.861 4.159 4.16 4.159 2.294 0 4.162-1.864 4.162-4.159 0-2.299-1.868-4.16-4.162-4.16zm0 0" fill="#684E79" sketch:type="MSShapeGroup"/></svg>
